icon/lg/stackoverflow-icon.svg

<?xml version="1.0" encoding="UTF-8"?>
<svg viewBox="0 0 256 304" version="1.1" xmlns="http://www.w3.org/2000/svg" xmlns:xlink="http://www.w3.org/1999/xlink" preserveAspectRatio="xMidYMid" height="1em" width="1em">
  <g>
    <polygon fill="#BCBBBB" points="216.329708 276.187929 216.329708 194.976776 243.28341 194.976776 243.28341 303.14163 0 303.14163 0 194.976776 26.9537015 194.976776 26.9537015 276.187929"/>
    <path d="M56.7077876,187.275718 L189.025959,214.929516 L194.626728,188.325863 L62.3085568,160.672065 L56.7077876,187.275718 L56.7077876,187.275718 Z M74.2101912,124.267065 L196.727016,181.324901 L207.928555,156.821536 L85.4117295,99.4136524 L74.2101912,124.267065 Z M108.164854,64.0587971 L212.129132,150.520671 L229.281487,129.867835 L125.31721,43.4059609 L108.164854,64.0587971 L108.164854,64.0587971 Z M175.374084,0 L153.671104,16.1022113 L234.18216,124.617114 L255.88514,108.514902 L175.374084,0 Z M53.9074031,248.884179 L189.025959,248.884179 L189.025959,221.930478 L53.9074031,221.930478 L53.9074031,248.884179 Z" fill="#F48023"/>
  </g>
</svg>

<svg width="256" height="304" xmlns="http://www.w3.org/2000/svg" preserveAspectRatio="xMidYMid"><path fill="#BCBBBB" d="M216.33 276.188v-81.211h26.953v108.165H0V194.977h26.954v81.21z"/><path d="m56.708 187.276 132.318 27.654 5.6-26.604L62.31 160.672l-5.601 26.604Zm17.502-63.009 122.517 57.058 11.202-24.503L85.412 99.414 74.21 124.267Zm33.955-60.208 103.964 86.462 17.152-20.653-103.964-86.462-17.152 20.653ZM175.375 0 153.67 16.102l80.511 108.515 21.703-16.102L175.375 0ZM53.906 248.884h135.119V221.93H53.907v26.954Z" fill="#F48023"/></svg>
